src/lib/packages/icons/src/assets/filled/droplet-slash.svg

<svg width="24" height="24" viewBox="0 0 24 24" fill="none" xmlns="http://www.w3.org/2000/svg">
<path d="M18.472 9.76699C19.154 11.212 19.5 12.637 19.5 14C19.5 18.135 16.136 21.5 12 21.5C10.516 21.5 9.08899 21.073 7.87399 20.267C7.74899 20.184 7.66799 20.049 7.65299 19.9C7.63799 19.751 7.69099 19.603 7.79699 19.497L17.667 9.62701C17.782 9.51201 17.944 9.46 18.106 9.488C18.266 9.515 18.403 9.61899 18.472 9.76699ZM21.53 2.46999C21.237 2.17699 20.762 2.17699 20.469 2.46999L16.39 6.549C14.478 4.175 12.382 2.66399 12.289 2.58999C12.119 2.46999 11.879 2.46999 11.709 2.58999C11.419 2.79999 4.49899 7.80999 4.49899 14C4.49899 15.25 4.82199 16.456 5.39999 17.539L2.46899 20.47C2.17599 20.763 2.17599 21.238 2.46899 21.531C2.61499 21.677 2.80699 21.751 2.99899 21.751C3.19099 21.751 3.383 21.678 3.529 21.531L21.529 3.531C21.823 3.238 21.823 2.76199 21.53 2.46999Z" fill="currentColor"/>
</svg>

<svg xmlns="http://www.w3.org/2000/svg" width="24" height="24" fill="none"><path fill="currentColor" d="M18.472 9.767c.682 1.445 1.028 2.87 1.028 4.233 0 4.135-3.364 7.5-7.5 7.5a7.438 7.438 0 0 1-4.126-1.233.5.5 0 0 1-.077-.77l9.87-9.87a.498.498 0 0 1 .805.14ZM21.53 2.47a.75.75 0 0 0-1.061 0L16.39 6.549c-1.912-2.374-4.008-3.885-4.101-3.959a.512.512 0 0 0-.58 0c-.29.21-7.21 5.22-7.21 11.41 0 1.25.323 2.456.901 3.539L2.469 20.47a.75.75 0 0 0 1.06 1.061l18-18a.75.75 0 0 0 .001-1.061Z"/></svg>
